X:1
T:Louison Louisette
C:Frederic Paris\R:bourree a trois temps
A:France
F:http://members.chello.at/simon.wascher
Z:abc transcription Simon Wascher
M:3/8
L:1/16
K:G
A2AGAB | G2E2FG | A2AGAB | cdcBAG |
A2AGAB | G2E2FG | A2GFED | G6 :|
|:\
A2GFED | A2GFED | AGABAF | G2EFGE\
 | A2GFED | A2GFED | AGABAF | G6 :|
